X:1
T:Title
%%score { ( 1 3 ) | ( 2 4 ) }
L:1/8
M:4/4
K:G
V:1 treble nm="Grand Piano"
V:3 treble 
V:2 bass 
V:4 bass 
V:1
 z4 z2[Q:1/4=100] [B,D]>[B,E] | [B,G]2 [B,G]2 [B,E]2 [B,D]>[B,E] | %2
 [B,G]2 [B,G]2 [B,E]2 [B,D]>[B,E] | [B,G]>[CF] [DG]A B2 d2 | e6 e>e | d>e dc B2 B>B | %6
 B>c BA G2 [EG]>[EG] | [^CEA]>[CEB] [=CA][^CG] [CF]2 [CE]2 | z2 FA d2 z2 | d3 e BAGA | %10
 B2 G2 .E2 GB | d3 e BAGB |[M:9/8] [FA]2 [GB]- [GB] [Ac]2- [Ac][GB]>[Ac] | %13
[M:4/4] [Bd]>[Bd] [Bd]B A<G G>A | B>B BG E<D [B,D]>[B,D] | [CE]>[DF] [EG][EA] [B,D]2 [CA]2 | %16
[M:3/4] [B,G]6 |] %17
V:2
 z4 z2 [G,,G,]>[G,,G,] | [G,,G,]2 [G,,G,]2 [G,,G,]2 [G,,G,]>[G,,G,] | %2
 [G,,G,]2 [G,,G,]2 [G,,G,]2 [G,,G,]>[G,,G,] | %3
 [G,,G,]>[A,,D,] [B,,G,][D,F,D][K:treble] [G,DG]2 [G,B,G]2 | [CG]6 [CG]>[CG] | %5
 [B,DG]>[B,DG] [A,DF][A,DF] [G,DG]2[K:bass] [B,^D]>[A,B,D] | %6
 [G,B,E]>[G,B,E] [G,B,^D][F,B,D] [E,B,E]2 [C,C]>[C,C] | A,,>A,, [A,,E,][A,,E,] [A,,A,]2 [A,,G,]2 | %8
 z4[K:treble] F2 z2 | [G,B,G]3 [G,B,G] [G,DG][G,CD][G,B,D][G,CD] | [G,DG]2 [G,B,D]2 [G,C] [G,B,]3 | %11
 [G,B,G]3 [G,B,G] [G,DG][G,CD][G,B,D][G,DG] | %12
[M:9/8][K:bass] [D,D]2 [D,D]- [D,D] [D,D]2- [D,D][K:treble][G,D]>[G,D] | %13
[M:4/4] [G,D]>[G,D] [G,D][G,DG] [G,CD]<[G,B,D] [G,B,D]>[G,CD] | %14
 [G,DG]>[G,DG] [G,DG][K:bass][G,B,D] [G,C]<[G,B,] [G,,G,]>[G,,G,] | %15
 [C,G,]>[C,G,] [C,G,][C,G,] [D,G,]2 [D,F,]2 |[M:3/4] [G,,G,]6 |] %17
V:3
 x8 | x8 | x8 | x8 | x8 | x8 | x8 | x8 | D6 z2 | x8 | z4 z D3 | x8 |[M:9/8] x9 |[M:4/4] x8 | x8 | %15
 x8 |[M:3/4] x6 |] %17
V:4
 x8 | x8 | x8 | x4[K:treble] x4 | x8 | x6[K:bass] x2 | x8 | x8 | [D,F,]6[K:treble] z2 | x8 | x8 | %11
 x8 |[M:9/8][K:bass] x7[K:treble] x2 |[M:4/4] x8 | x3[K:bass] x5 | x8 |[M:3/4] x6 |] %17

